resources/svg/website.svg

<svg viewBox="0 0 1200 1200"><path d="M698.598 922.244h-199.6V722.646h199.6v199.598zm252.506 0H751.503V722.646h199.601v199.598zm-505.012 0H246.493V722.646h199.599v199.598zm505.012-631.262v367.936h-704.61V290.982h704.61zm101-105.812H147.896v829.66h904.209V185.17h-.001zM0 1161.521V38.478h1200v1123.045l-1200-.002z" fill="currentColor"/></svg>

<svg xmlns="http://www.w3.org/2000/svg" docname="website.svg" version="0.48.4 r9939" x="0px" y="0px" viewBox="0 0 1200 1200" enable-background="new 0 0 1200 1200" xml:space="preserve" fill="currentColor"><path id="path26029" connector-curvature="0" d="M698.598,922.244h-199.6V722.646h199.6V922.244z M951.104,922.244H751.503 V722.646h199.601V922.244z M446.092,922.244H246.493V722.646h199.599V922.244L446.092,922.244z M951.104,290.982v367.936h-704.61 V290.982H951.104z M1052.104,185.17H147.896v829.66h904.209V185.17H1052.104z M0,1161.521V38.478h1200v1123.045L0,1161.521 L0,1161.521z"/></svg>
